X: 39919
T: Thomas McElvogue's
R: reel
M: 4/4
K: Bminor
|:ABB/B/B fzBf|gfeg ~f3f|fBB/B/B ggeg|fedf edBA|
ABB/B/B fzBf|gfeg ~f3z|fBB/B/B efgf|edcd cB B2:|
|:ABB/B/B ^Acc/c/c|Bdd/d/d cdeg|f3B g2eg|fedf edBA|
ABB/B/B ^Acc/c/c|Bdd/d/d cdeg|f3B efgf|edcd cB B2:|

